X:1
T:Title
%%score { 1 | 2 }
L:1/8
M:3/4
K:Eb
V:1 treble nm="Grand Piano"
V:2 bass 
V:1
 z2 z2[Q:1/4=94] G>A | B3 =A c>B | B G3 E>F | G3 _G A>=G |[M:2/4] E4 |[M:1/4] G>G | %6
[M:3/4] [DF]3 [EG] [DFA]>[DAc] | [Ac] [GB]3 B>e | d3 B d>c |[M:2/4] [DB]4 |[M:1/4] [DB]>[DB] | %11
[M:3/4] [DB]3 [DF] [DB]>[DA] | [B,EA] [B,EG]3 [=B,DG]>[B,DG] | [=B,DG]3 [G,_B,D] [G,B,G]>[G,B,F] | %14
[M:2/4] [G,CE]4 |[M:1/4] E>E |[M:3/4] e3 [Ece] [EBd]>[EAc] | %17
 [EAc] [EGB]3 [B,EG]>[B,FB][Q:1/4=88][Q:1/4=82][Q:1/4=76] | [B,GB]3 [CFA] [B,EG][A,DF] | %19
[M:2/4] [G,E]4 |] %20
V:2
 z2 z2 [E,E]>[E,F,E] | [E,G,E]3 [E,_G,E] [E,A,E]>[E,=G,E] | [E,G,E] [E,B,E]3 [E,G,B,]>[E,A,B,] | %3
 [E,B,E]3 [E,=A,E] [E,CE]>[E,B,E] |[M:2/4] [E,G,B,]4 |[M:1/4] [E,B,E]>[E,B,E] | %6
[M:3/4] [B,,B,]3 [B,,B,] B,,>B,, | [E,E] [E,E]3[K:treble] [G,B,E]>[G,B,G] | %8
 [F,B,F]3 [F,B,D] [F,=A,F]>[F,A,E] |[M:2/4] [B,,B,]4 |[M:1/4] [B,,F,]>[B,,F,] | %11
[M:3/4] [B,,F,]3 [B,,B,] [B,,B,]>[B,,B,] | E, E,3 G,,>G,, | G,,3 G,, G,,>G,, |[M:2/4] C,4 | %15
[M:1/4] C>[B,_D] |[M:3/4] [A,CE]3 A, A,>A, | E, E,3 E,>D, | E,3 A,, B,,B,, |[M:2/4] E,4 |] %20

